X: 47
T:the Duchess of Bedford's Strathspey
B:William Marshall's Scottish Airs, Melodies, Strathspeys, Reels &c (1822)
C:William Marshall
L:1/8
M:C
O:Scotland
R:Strathspey
Z:Clark Bernst + Richard Robinson
%%Page:5 - 1
F:http://richardrobinson.tunebook.org.uk/tune/3890
%%TBL:{"version":1,"type":"tune","id":"3890"}
K:Bb
%%staves { 1 2 }
V:1
"^Slow when not danced"
B,<B B>c !trill!B2 (FB) | [Fc]<[Fc][Fc]>[Fd] {d}e2 (Fe) | \
.d.f.g.f .e.d.c.B   | [FA]>B ~c>d c/B/A/G/ (.F.E) |
D<B~B>c !trill!B2 (FB)  | [Fc]<[Fc][Fc]>[Fd] {d}[FAce]2 (Fe) | \
.d.f.g.f .e.d.c.B   | !trill!F>B (A/B/)(c/A/) [DB]2 [DB] ||
e | \
(d/e/)f/g/ ff {a}b2 fa              | (b/a/)g/f/ (g/f/)e/d/ (e/d/)c/B/ (c>d) | \
(c/d/)e/f/ (g>f) .e.d.c.B          | ABc>d (c/B/)A/G/ (F>E) |
.D.B.F.B .F.c.A.c                 | .F.d.B.d .E.g.e.g | \
d/f/g/a/ b>f (g/f/)e/d/ (e/d/)c/B/ | !trill!F>B (A/B/)(c/A/) [DB]2 [DB] |]
V:2 middle=d clef=bass
L:1/4
BBdB | fffa | b/d'/e'/d'/ c'/b/a/b/ | fFfa | \
bBdB | ffaf |  | b/d'/e'/d'/ c'/b/a/b/ | fFBB/ || \
z/ | \
bbbb | bBff | ee/d/ c/d/e/=e/ | fFff | BbFf | BbEe | eBec | fFBB/ |]

